X:1
T:Dismissal, 87.87.87
T:William Letton Viner, 1845
T:Dismissal, 87.87.87
T:Public Domain
C:William Letton Viner, 1845
Z:Public Domain
%%score ( 1 2 ) ( 3 4 )
L:1/8
M:4/4
K:A
V:1 treble 
V:2 treble 
V:3 bass 
V:4 bass 
V:1
 [CA]2 ([EG][DF]) [CE]2 C2 | [DF]2 [DA]2 [CE]2 [A,C]2 | [Ac]2 [FB][EA] [DF]2 [FB]2 | %3
 [EA]2 [EG]2 [EA]4 | [Ec]2 (cd) [Ee]2 [Ec]2 | [Gd]2 [GB]2 [Ac]2 [EA]2 | [Ec]2 (cd) [Ee]2 [Ec]2 | %7
 [Gd]2 [Ac]2 [EB]4 | [CA]2 ([EG][DF]) [CE]2 C2 | [DF]2 [DA]2 [CE]2 [A,C]2 | %10
 [Ac]2 [FB][EA] [DF]2 [FB]2 | [EA]2 [EG]2 [EA]4 |] %12
V:2
 x6 C2 | x8 | x8 | x8 | x2 E2 x4 | x8 | x2 E2 x4 | x8 | x6 C2 | x8 | x8 | x8 |] %12
V:3
 [A,,E,]2 (E,G,) [A,,A,]2 [A,,A,]2 | [D,A,]2 [F,A,]2 A,2 [A,,A,]2 | %2
 [A,,E]2 [B,,D][C,C] [D,B,]2 [B,,D]2 | [E,C]2 [E,B,]2 [A,,C]4 | A,2 (A,B,) [A,C]2 A,2 | %5
 [E,B,]2 [E,E]2 [A,E]2 [A,,C]2 | A,2 (A,B,) [A,C]2 A,2 | [E,B,]2 [E,A,]2 [E,G,]4 | %8
 [A,,E,]2 (E,G,) [A,,A,]2 [A,,A,]2 | [D,A,]2 [F,A,]2 A,2 [A,,A,]2 | %10
 [A,,E]2 [B,,D][C,C] [D,B,]2 [B,,D]2 | [E,C]2 [E,B,]2 [A,,C]4 |] %12
V:4
 x2 A,,2 x4 | x4 A,2 x2 | x8 | x8 | A,2 A,2 x A,2 x | x8 | A,2 A,2 x A,2 x | x8 | x2 A,,2 x4 | %9
 x4 A,2 x2 | x8 | x8 |] %12

